!!!OTL: Der Werber und der Jude Dort unden in dem Judenhaus,
!!!ARE: Europa, Osteuropa, UdSSR, Wolga - Gebiet, Rothammel
!!!YOR: 6, S. 150
!!    1969 gedruckt in Freiburg
!!!SCT: Q0131B
!!!YEM: Copyright 1995, estate of Helmut Schaffrath.
**kern
*ICvox
*Ivox
!! Irregular meter.
*MX
*k[f#]
*G:
{8d
=1
8d
8e
8f#
8g
8a
8b
=2
4g
8r}
{8d
=3
8d
8e
8f#
8g
8a
8b
=4
4g
4r}
{4a
=5
8b
8dd
8cc
8dd
=6
4b
4a}
{8b
8dd
8cc
8cc
=7
8b
8b
8a}
{8b
=8
8g
8g
8f#
8d
=9
4e
4d}
==
!!!AGN: Ballade, Braut - Werbung, Erpressung
!! Transkription einer Tonaufnahme. Verzierungen (Nachschlaege) .
!!!ONB: ESAC (Essen Associative Code) Database: BALLADE
!!!AMT: irregular
!!!AIN: vox
!!!EED: Helmut Schaffrath
!!!EEV: 1.0
*-
